icons/14x14_building_outline.svg

<svg width="14" height="14" fill="none" xmlns="http://www.w3.org/2000/svg"><path d="M4 7V2h8v10h-2V4H6v3h2v5H6V9H4v3H2V7h2Z" fill="#000"/></svg>

<svg xmlns="http://www.w3.org/2000/svg" width="14" height="14" viewBox="0 0 14 14">
  <path d="M4,7 L4,2 L12,2 L12,12 L10,12 L10,4 L6,4 L6,7 L8,7 L8,12 L6,12 L6,9 L4,9 L4,12 L2,12 L2,7 L4,7 Z"/>
</svg>
